web/images/icons/paper-plane.svg

<?xml version="1.0" encoding="UTF-8"?>
<svg width="491px" height="423px" viewBox="0 0 491 423" version="1.1" xmlns="http://www.w3.org/2000/svg" xmlns:xlink="http://www.w3.org/1999/xlink">
    <!-- Generator: Sketch 51.3 (57544) - http://www.bohemiancoding.com/sketch -->
    <title>paper-plane</title>
    <desc>Created with Sketch.</desc>
    <defs></defs>
    <g id="Page-1" stroke="none" stroke-width="1" fill="none" fill-rule="evenodd">
        <g id="paper-plane" transform="translate(0.000000, -1.000000)" fill="#2CD6CA" fill-rule="nonzero">
            <path d="M0.043,212.197 C0.643,222.297 7.343,230.797 17.043,233.697 L196.643,287.997 L203.243,411.797 C203.543,416.697 206.843,420.997 211.543,422.597 C212.843,423.097 214.243,423.297 215.543,423.297 C219.043,423.297 222.343,421.897 224.743,419.197 L288.243,348.897 L378.243,411.197 C382.243,413.997 386.943,415.497 391.843,415.497 C403.143,415.497 412.943,407.497 415.343,396.297 L490.043,15.597 C490.943,11.197 489.243,6.597 485.843,3.797 C482.343,0.897 477.643,0.197 473.443,1.897 L14.443,188.697 C5.143,192.897 -0.557,202.097 0.043,212.197 Z M226.043,381.097 L221.943,302.997 L267.943,334.797 L226.043,381.097 Z M391.443,390.597 L227.643,277.197 L457.343,54.997 L391.443,390.597 Z M432.143,45.197 L205.043,264.897 L25.643,210.697 L432.143,45.197 Z" id="Shape"></path>
        </g>
    </g>
</svg>

<svg height="423" viewBox="0 0 491 423" width="491" xmlns="http://www.w3.org/2000/svg"><path d="m.043 212.197c.6 10.1 7.3 18.6 17 21.5l179.6 54.3 6.6 123.8c.3 4.9 3.6 9.2 8.3 10.8 1.3.5 2.7.7 4 .7 3.5 0 6.8-1.4 9.2-4.1l63.5-70.3 90 62.3c4 2.8 8.7 4.3 13.6 4.3 11.3 0 21.1-8 23.5-19.2l74.7-380.7c.9-4.4-.8-9-4.2-11.8-3.5-2.9-8.2-3.6-12.4-1.9l-459 186.8c-9.3 4.2-15 13.4-14.4 23.5zm226 168.9-4.1-78.1 46 31.8zm165.4 9.5-163.8-113.4 229.7-222.2zm40.7-345.4-227.1 219.7-179.4-54.2z" fill="#2cd6ca" transform="translate(0 -1)"/></svg>
